Sources/FrostedUI/Resources/Icons.xcassets/pinTilted20.imageset/pin-tilted-20.svg

<svg width="20" height="20" viewBox="0 0 20 20" fill="none" xmlns="http://www.w3.org/2000/svg" data-fui-icon="true">
  <path
    d="M10.5369 2.39001C11.5325 1.39474 13.1466 1.39486 14.1423 2.39001L17.6082 5.85583C18.6034 6.85158 18.6035 8.46558 17.6082 9.4613L14.7253 12.3441C14.581 12.4885 14.4737 12.6666 14.4138 12.8617L13.4041 16.1537C12.8403 17.9917 10.5224 18.5687 9.16284 17.2094L6.50659 14.5531L3.63354 17.4252C3.34066 17.7181 2.86589 17.718 2.573 17.4252C2.28016 17.1323 2.28012 16.6575 2.573 16.3646L5.44507 13.4926L2.78882 10.8353C1.42964 9.47579 2.00651 7.15784 3.84448 6.59412L7.13647 5.58435C7.33159 5.52445 7.50971 5.41812 7.65405 5.2738L10.5369 2.39001ZM13.0818 3.45154C12.6718 3.04167 12.0074 3.04167 11.5974 3.45154L8.7146 6.33435C8.39703 6.65189 8.00621 6.88712 7.5769 7.01892L4.28394 8.02869C3.52727 8.26085 3.28992 9.21498 3.84937 9.77478L10.2234 16.1488C10.7832 16.7084 11.7373 16.471 11.9695 15.7142L12.9792 12.4222C13.111 11.9928 13.3462 11.6012 13.6638 11.2836L16.5476 8.40076C16.9571 7.99082 16.9571 7.32634 16.5476 6.91638L13.0818 3.45154Z"
    fill="currentColor"
  />
</svg>

<svg xmlns="http://www.w3.org/2000/svg" width="20" height="20" fill="none" data-fui-icon="true" viewBox="0 0 20 20"><path fill="currentColor" d="M10.537 2.39a2.55 2.55 0 0 1 3.605 0l3.466 3.466a2.55 2.55 0 0 1 0 3.605l-2.883 2.883a1.25 1.25 0 0 0-.311.518l-1.01 3.292c-.564 1.838-2.882 2.415-4.241 1.055l-2.656-2.656-2.873 2.872a.75.75 0 1 1-1.061-1.06l2.872-2.872-2.656-2.658c-1.36-1.36-.782-3.677 1.055-4.24l3.292-1.01c.196-.06.374-.167.518-.311zm2.545 1.062a1.05 1.05 0 0 0-1.485 0L8.715 6.334a2.75 2.75 0 0 1-1.138.685l-3.293 1.01a1.05 1.05 0 0 0-.435 1.746l6.374 6.374a1.05 1.05 0 0 0 1.746-.435l1.01-3.292c.132-.43.367-.82.685-1.138L16.548 8.4a1.05 1.05 0 0 0 0-1.485z"/></svg>
